X:1
T:[ID 2-94]
T:[ID 2-94]
T:Bezeichnung standardisiert: Menuet [mit Trio] Men\"uet Con Trio 2. \"Ahnlich in dieser Quelle: ID 1-122;
T:Urheber unbekannt Datum in der hier transkribierten schriftlichen Quelle: 1767
C:Urheber unbekannt
C:Datum in der hier transkribierten schriftlichen Quelle: 1767
L:1/8
M:3/4
K:F
V:1 treble 
V:1
 f2 f2 ed | c2 c2 AF | G2 GBBd |{d} c4 B2 | a/g/f/e/ d2 c2 | Bdfa g2 | dfedc=B |{=B} c6 :: g4 ec | %9
 B2 BA B2 | gfedcB | A2 GA F2 | FAce f2 | FAce f2 | GBAGFE | F6 :| %16
[M:3/4]"^Trio" !fermata!c4 (3Bcd | c4 f2 | ed c2 d2 |{f} e6 | gbagfe | dfedc=B |{B} c6 :: g3 egb | %24
 a2 ^c2 d2 | f3 dfa | g2 B2 c2 | Bdfbfd | e4 f2 | GBAGFE |{E} F6 :| %31

